X:149
T:Polska efter Johan Jansson
R:sl\"angpolska
H:efter Johan Jansson, Peders\"ore
A:\"Osterbotten, Finland
M:3/4
L:1/16
K:Dm
A2=B^c d2eg f2ed | d2^c=B c2d2 edcB | A2=B^c d2eg f2ed |
ed^c=B A2GB A4 :||: f4 fefg a2af | f2ed ^cdef g2ge |
fefa ageg gfdf | fed^c e2d2 d4 :|

